16x16/apps/bumblebee.svg

<svg xmlns="http://www.w3.org/2000/svg" width="16" height="16" version="1">
 <path style="fill:#4ca341" d="M 5.9765625 2 C 5.4342411 2.0138272 5.0018311 2.4575024 5.0019531 3 L 5.0019531 3.5957031 C 2.1742653 4.2675965 0.2421875 6.4980469 0.2421875 6.4980469 C 0.02649993 6.7490946 -0.05101358 7.0905927 0.03515625 7.4101562 C 0.03515625 7.4101562 1.2646788 11.465718 5.0019531 12.492188 L 5.0019531 13 C 5.0020083 13.552262 5.4496912 13.999945 6.0019531 14 L 15 14 C 15.552262 13.999945 15.999945 13.552262 16 13 L 16 3 C 15.999945 2.4477381 15.552262 2.0000552 15 2 L 6.0097656 2 L 6.0351562 2.0097656 C 6.0150476 2.0090511 5.9967945 1.9994948 5.9765625 2 z"/>
 <path style="fill:#262626" d="m 2.4303,7.3049 c 0,0 1.043525,-2.0159 3.570825,-2.2245 V 4.34905 C 3.201725,4.59185 1,7.15115 1,7.15115 c 0,0 1.150725,4.2844 5.001125,4.6767 V 11.05043 C 3.175425,10.66543 2.4302,7.30403 2.4302,7.30403 Z m 3.570825,2.1993 v 0.71195 C 3.865525,9.80535 3.495,7.40895 3.495,7.40895 c 0,0 0.803125,-1.2261 2.506025,-1.425 v 0.78121 c -0.001,0 -0.0017,-4.061e-4 -0.0027,-4.061e-4 -0.89377,-0.11578 -1.369725,0.78557 -1.369725,0.78557 0,0 0.169085,1.5173 1.373025,1.954 m 0,-6.5042 v 1.349 c 0.08217,-0.00684 0.386625,-0.0125 0.469255,-0.015541 3.1825,-0.11578 5.2561,2.8176 5.2561,2.8176 0,0 -2.3816,3.1261001 -4.8629,3.1261001 -0.2274,0 -0.662565,-0.02277 -0.862525,-0.06101 v 0.83421 c 0.17099,0.0234 0.570545,0.03722 0.755545,0.03722 2.309,0 3.9787,-1.2729001 5.5956,-2.7794001 0.26807,0.23176 1.3656,0.79557 1.5912,1.0423 -1.5373,1.3893001 -5.1201,2.5093001 -7.1513,2.5093001 -0.19579,0 -0.606095,-0.01279 -0.790925,-0.03203 v 1.1722 H 14.99995 V 3.0001729 H 6.001675 Z m 0,2.9838 v -0.90335 c 0.08133,-0.0051 0.385555,-0.010826 0.469255,-0.013714 2.2885,-0.077601 3.79,2.1229 3.79,2.1229 0,0 -1.6217,2.4313 -3.3604,2.4313 -0.25024,0 -0.696875,-0.043397 -0.898805,-0.1167 v -2.7391 c 0.8909,0.1162 1.292475,0.5411 1.828075,1.5049 l 1.1913,-1.0843 c 0,0 -0.86962,-1.2311 -2.3356,-1.2311 -0.15935,-5.92e-5 -0.534095,0.012051 -0.683835,0.029255"/>
</svg>

<svg xmlns="http://www.w3.org/2000/svg" width="16" height="16" version="1"><path style="fill:#4ca341" d="M5.977 2a1 1 0 0 0-.975 1v.596C2.174 4.268.242 6.498.242 6.498a1 1 0 0 0-.207.912s1.23 4.056 4.967 5.082V13a1 1 0 0 0 1 1H15a1 1 0 0 0 1-1V3a1 1 0 0 0-1-1H6.01l.025.01c-.02 0-.038-.01-.058-.01z"/><path style="fill:#262626" d="M2.43 7.305S3.474 5.289 6.001 5.08V4.35C3.201 4.592 1 7.151 1 7.151s1.15 4.285 5.001 4.677v-.778c-2.826-.385-3.57-3.746-3.57-3.746zm3.571 2.2v.711C3.866 9.806 3.495 7.41 3.495 7.41s.803-1.226 2.506-1.425v.781h-.003c-.893-.116-1.37.785-1.37.785s.17 1.518 1.374 1.954m0-6.504v1.35c.082-.008.386-.013.469-.016 3.182-.116 5.256 2.817 5.256 2.817s-2.382 3.126-4.863 3.126c-.227 0-.662-.022-.862-.06v.833c.17.024.57.038.755.038 2.31 0 3.979-1.273 5.596-2.78.268.232 1.365.796 1.59 1.043-1.536 1.389-5.12 2.509-7.15 2.509-.196 0-.606-.013-.791-.032V13H15V3H6.002zm0 2.984V5.08c.081-.006.385-.011.469-.014 2.288-.078 3.79 2.123 3.79 2.123S8.639 9.62 6.9 9.62c-.25 0-.697-.043-.9-.117V6.765c.892.116 1.293.541 1.829 1.505L9.02 7.186s-.87-1.231-2.336-1.231c-.159 0-.534.012-.683.029"/></svg>
